X:101
T:Goose and the Gridiron THO3.101
O:England;London
M:6/8
L:1/8
Z:vmp. Peter Dunk 2011.from a transcription by Fynn Titford-Mock 2006-9
B:Thompson's Compleat Collection of 200 Favourite Country Dances Vol. III.1765-72
Q:3/8=110
K:A
A3B3|cea ecA|fed cBA|GBA GFE|A2 a A2 a|A2 a agf|gfe Bc^d|e3E3:|
|:E2 e e^de|E2 e e^de|ced cBA|GBA GFE|A2 a A2 a|A2 a agf|edc BAG|A3[A3A,3]:|

